_includes/icons/ios-list.svg

<svg fill="#666" height="50" viewBox="0 0 50 50" width="50" xmlns="http://www.w3.org/2000/svg"><path d="m2.8125 7c-.476562.089844-.820312.511719-.8125 1v4c0 .550781.449219 1 1 1h4c.550781 0 1-.449219 1-1v-4c0-.550781-.449219-1-1-1h-4c-.03125 0-.0625 0-.09375 0s-.0625 0-.09375 0zm1.1875 2h2v2h-2zm6.71875 0c-.550781.078125-.9375.589844-.859375 1.140625s.589844.9375 1.140625.859375h36c.359375.003906.695313-.183594.878906-.496094.179688-.3125.179688-.695312 0-1.007812-.183593-.3125-.519531-.5-.878906-.496094h-36c-.03125 0-.0625 0-.09375 0s-.0625 0-.09375 0-.0625 0-.09375 0zm-7.90625 8c-.476562.089844-.820312.511719-.8125 1v4c0 .550781.449219 1 1 1h4c.550781 0 1-.449219 1-1v-4c0-.550781-.449219-1-1-1h-4c-.03125 0-.0625 0-.09375 0s-.0625 0-.09375 0zm1.1875 2h2v2h-2zm6.71875 0c-.550781.078125-.9375.589844-.859375 1.140625s.589844.9375 1.140625.859375h36c.359375.003906.695313-.183594.878906-.496094.179688-.3125.179688-.695312 0-1.007812-.183593-.3125-.519531-.5-.878906-.496094h-36c-.03125 0-.0625 0-.09375 0s-.0625 0-.09375 0-.0625 0-.09375 0zm-7.90625 8c-.476562.089844-.820312.511719-.8125 1v4c0 .550781.449219 1 1 1h4c.550781 0 1-.449219 1-1v-4c0-.550781-.449219-1-1-1h-4c-.03125 0-.0625 0-.09375 0s-.0625 0-.09375 0zm1.1875 2h2v2h-2zm6.71875 0c-.550781.078125-.9375.589844-.859375 1.140625s.589844.9375 1.140625.859375h36c.359375.003906.695313-.183594.878906-.496094.179688-.3125.179688-.695312 0-1.007812-.183593-.3125-.519531-.5-.878906-.496094h-36c-.03125 0-.0625 0-.09375 0s-.0625 0-.09375 0-.0625 0-.09375 0zm-7.90625 8c-.476562.089844-.820312.511719-.8125 1v4c0 .550781.449219 1 1 1h4c.550781 0 1-.449219 1-1v-4c0-.550781-.449219-1-1-1h-4c-.03125 0-.0625 0-.09375 0s-.0625 0-.09375 0zm1.1875 2h2v2h-2zm6.71875 0c-.550781.078125-.9375.589844-.859375 1.140625s.589844.9375 1.140625.859375h36c.359375.003906.695313-.183594.878906-.496094.179688-.3125.179688-.695312 0-1.007812-.183593-.3125-.519531-.5-.878906-.496094h-36c-.03125 0-.0625 0-.09375 0s-.0625 0-.09375 0-.0625 0-.09375 0z"/></svg>

<svg xmlns="http://www.w3.org/2000/svg" viewBox="0 0 50 50" width="50" height="50" fill="#666"><path d="M 2.8125 7 C 2.335938 7.089844 1.992188 7.511719 2 8 L 2 12 C 2 12.550781 2.449219 13 3 13 L 7 13 C 7.550781 13 8 12.550781 8 12 L 8 8 C 8 7.449219 7.550781 7 7 7 L 3 7 C 2.96875 7 2.9375 7 2.90625 7 C 2.875 7 2.84375 7 2.8125 7 Z M 4 9 L 6 9 L 6 11 L 4 11 Z M 10.71875 9 C 10.167969 9.078125 9.78125 9.589844 9.859375 10.140625 C 9.9375 10.691406 10.449219 11.078125 11 11 L 47 11 C 47.359375 11.003906 47.695313 10.816406 47.878906 10.503906 C 48.058594 10.191406 48.058594 9.808594 47.878906 9.496094 C 47.695313 9.183594 47.359375 8.996094 47 9 L 11 9 C 10.96875 9 10.9375 9 10.90625 9 C 10.875 9 10.84375 9 10.8125 9 C 10.78125 9 10.75 9 10.71875 9 Z M 2.8125 17 C 2.335938 17.089844 1.992188 17.511719 2 18 L 2 22 C 2 22.550781 2.449219 23 3 23 L 7 23 C 7.550781 23 8 22.550781 8 22 L 8 18 C 8 17.449219 7.550781 17 7 17 L 3 17 C 2.96875 17 2.9375 17 2.90625 17 C 2.875 17 2.84375 17 2.8125 17 Z M 4 19 L 6 19 L 6 21 L 4 21 Z M 10.71875 19 C 10.167969 19.078125 9.78125 19.589844 9.859375 20.140625 C 9.9375 20.691406 10.449219 21.078125 11 21 L 47 21 C 47.359375 21.003906 47.695313 20.816406 47.878906 20.503906 C 48.058594 20.191406 48.058594 19.808594 47.878906 19.496094 C 47.695313 19.183594 47.359375 18.996094 47 19 L 11 19 C 10.96875 19 10.9375 19 10.90625 19 C 10.875 19 10.84375 19 10.8125 19 C 10.78125 19 10.75 19 10.71875 19 Z M 2.8125 27 C 2.335938 27.089844 1.992188 27.511719 2 28 L 2 32 C 2 32.550781 2.449219 33 3 33 L 7 33 C 7.550781 33 8 32.550781 8 32 L 8 28 C 8 27.449219 7.550781 27 7 27 L 3 27 C 2.96875 27 2.9375 27 2.90625 27 C 2.875 27 2.84375 27 2.8125 27 Z M 4 29 L 6 29 L 6 31 L 4 31 Z M 10.71875 29 C 10.167969 29.078125 9.78125 29.589844 9.859375 30.140625 C 9.9375 30.691406 10.449219 31.078125 11 31 L 47 31 C 47.359375 31.003906 47.695313 30.816406 47.878906 30.503906 C 48.058594 30.191406 48.058594 29.808594 47.878906 29.496094 C 47.695313 29.183594 47.359375 28.996094 47 29 L 11 29 C 10.96875 29 10.9375 29 10.90625 29 C 10.875 29 10.84375 29 10.8125 29 C 10.78125 29 10.75 29 10.71875 29 Z M 2.8125 37 C 2.335938 37.089844 1.992188 37.511719 2 38 L 2 42 C 2 42.550781 2.449219 43 3 43 L 7 43 C 7.550781 43 8 42.550781 8 42 L 8 38 C 8 37.449219 7.550781 37 7 37 L 3 37 C 2.96875 37 2.9375 37 2.90625 37 C 2.875 37 2.84375 37 2.8125 37 Z M 4 39 L 6 39 L 6 41 L 4 41 Z M 10.71875 39 C 10.167969 39.078125 9.78125 39.589844 9.859375 40.140625 C 9.9375 40.691406 10.449219 41.078125 11 41 L 47 41 C 47.359375 41.003906 47.695313 40.816406 47.878906 40.503906 C 48.058594 40.191406 48.058594 39.808594 47.878906 39.496094 C 47.695313 39.183594 47.359375 38.996094 47 39 L 11 39 C 10.96875 39 10.9375 39 10.90625 39 C 10.875 39 10.84375 39 10.8125 39 C 10.78125 39 10.75 39 10.71875 39 Z"/></svg>
